X: 4
T: The Donegal Tinker
R: reel
M: 4/4
L: 1/8
K: Dmix
d3e cAGc|AddB cAGc|Addc AdcA|GEED CDEG|Ad (3ddd fd (3ddd|adfd cAGc|Addc AdcA|GEED CDEG||AD (3DDD AD (3DDD|ADAd cAGc|ADFA ~E3G|AdcA G3c|AD (3DDD A,D (3DDD|ADAd cAGc|ADFA EDEG|AdcA GcAG||Ad (3ddd BcAc|dA (3AAA afgf|Ad~d2 ~c3A|cdef g2fe|d2 (3ddd BcAc|dA (3AAA afgf|Adde ~c3A|cdef g2bg||ad (3ddd adbd|ad (3ddd adgd|ad (3ddd adfd|^cdef g2fe|ad (3ddd bd (3ddd |ad (3ddd adfg|abaf gfed|^cdef gefe||


Tune 1770	Setting 15216

